icons/evolvere-blue-folders-flat-vivid-dark-fallback/mimetypes/64/text-plain.svg

<?xml version="1.0" encoding="UTF-8" standalone="no"?>
<!-- Created with Inkscape (http://www.inkscape.org/) -->

<svg
   xmlns:dc="http://purl.org/dc/elements/1.1/"
   xmlns:cc="http://creativecommons.org/ns#"
   xmlns:rdf="http://www.w3.org/1999/02/22-rdf-syntax-ns#"
   xmlns:svg="http://www.w3.org/2000/svg"
   xmlns="http://www.w3.org/2000/svg"
   xmlns:sodipodi="http://sodipodi.sourceforge.net/DTD/sodipodi-0.dtd"
   xmlns:inkscape="http://www.inkscape.org/namespaces/inkscape"
   version="1.1"
   width="64"
   height="64"
   id="svg13094"
   inkscape:version="0.48.4 r9939"
   sodipodi:docname="text-plain.svg">
  <sodipodi:namedview
     pagecolor="#f8f9fa"
     bordercolor="#666666"
     borderopacity="1"
     objecttolerance="10"
     gridtolerance="10"
     guidetolerance="10"
     inkscape:pageopacity="1"
     inkscape:pageshadow="2"
     inkscape:window-width="1920"
     inkscape:window-height="1022"
     id="namedview81"
     showgrid="true"
     inkscape:zoom="5.6568543"
     inkscape:cx="70.670595"
     inkscape:cy="23.650675"
     inkscape:window-x="-5"
     inkscape:window-y="23"
     inkscape:window-maximized="1"
     inkscape:current-layer="svg13094"
     inkscape:snap-bbox="true"
     inkscape:bbox-paths="true"
     inkscape:bbox-nodes="true"
     inkscape:snap-bbox-edge-midpoints="true"
     inkscape:snap-bbox-midpoints="true"
     inkscape:object-paths="true"
     inkscape:snap-intersection-paths="true"
     inkscape:object-nodes="true"
     inkscape:snap-smooth-nodes="true"
     inkscape:snap-midpoints="true"
     inkscape:snap-object-midpoints="true"
     inkscape:snap-center="true"
     showborder="false">
    <inkscape:grid
       type="xygrid"
       id="grid3783"
       empspacing="5"
       visible="true"
       enabled="true"
       snapvisiblegridlinesonly="true" />
  </sodipodi:namedview>
  <defs
     id="defs11">
    <linearGradient
       x1="48.917568"
       y1="46.213669"
       x2="32.669781"
       y2="24"
       id="linearGradient4259-6-1"
       gradientUnits="userSpaceOnUse"
       gradientTransform="translate(6,0)">
      <stop
         id="stop3988-6-1"
         style="stop-color:#ffffff;stop-opacity:0.52975047"
         offset="0" />
      <stop
         id="stop3990-9-2"
         style="stop-color:#ffffff;stop-opacity:0"
         offset="1" />
    </linearGradient>
  </defs>
  <metadata
     id="metadata13099">
    <rdf:RDF>
      <cc:Work
         rdf:about="">
        <dc:format>image/svg+xml</dc:format>
        <dc:type
           rdf:resource="http://purl.org/dc/dcmitype/StillImage" />
        <dc:title />
      </cc:Work>
    </rdf:RDF>
  </metadata>
  <path
     inkscape:connector-curvature="0"
     d="M 4,0 64,0 64,62 4,62 z"
     id="path3960"
     style="fill:#e0d09c;fill-opacity:1;fill-rule:nonzero" />
  <rect
     y="0"
     x="13"
     height="62"
     width="1"
     id="rect10203"
     style="color:#000000;fill:#cb0000;fill-opacity:0.21819787;fill-rule:nonzero;stroke:none;stroke-width:2.28571415;marker:none;visibility:visible;display:inline;overflow:visible;enable-background:accumulate" />
  <path
     inkscape:connector-curvature="0"
     id="rect10209"
     d="m 4,16 0,1 60,0 0,-1 -60,0 z m 0,6 0,1 60,0 0,-1 -60,0 z m 0,6 0,1 60,0 0,-1 -60,0 z m 0,6 0,1 60,0 0,-1 -60,0 z m 0,6 0,1 60,0 0,-1 -60,0 z m 0,6 0,1 60,0 0,-1 -60,0 z m 0,6 0,1 60,0 0,-1 -60,0 z"
     style="color:#000000;fill:#2d7dd3;fill-opacity:0.2342105;fill-rule:nonzero;stroke:none;stroke-width:2.28571415;marker:none;visibility:visible;display:inline;overflow:visible;enable-background:accumulate" />
  <path
     inkscape:connector-curvature="0"
     style="fill:#7d5200;fill-opacity:0.18333333;fill-rule:nonzero"
     d="M 60,2 60,3 4,3 4,30 35.677734,62 64,62 64,37 64,6 z"
     id="path3900"
     sodipodi:nodetypes="ccccccccc" />
  <path
     style="color:#000000;fill:#ece3c2;fill-opacity:1;fill-rule:nonzero;stroke:none;stroke-width:2.28571415000000000;marker:none;visibility:visible;display:inline;overflow:visible;enable-background:accumulate"
     d="M 0 2 L 0 64 L 34 64 L 60 33 L 60 2 L 0 2 z M 10 5 C 11.656854 5 13 6.3431458 13 8 C 13 9.656854 11.656854 11 10 11 C 8.3431458 11 7 9.656854 7 8 C 7 6.3431458 8.3431458 5 10 5 z M 20 5 C 21.656854 5 23 6.3431458 23 8 C 23 9.656854 21.656854 11 20 11 C 18.343146 11 17 9.656854 17 8 C 17 6.3431458 18.343146 5 20 5 z M 30 5 C 31.656854 5 33 6.3431458 33 8 C 33 9.656854 31.656854 11 30 11 C 28.343146 11 27 9.656854 27 8 C 27 6.3431458 28.343146 5 30 5 z M 40 5 C 41.656854 5 43 6.3431458 43 8 C 43 9.656854 41.656854 11 40 11 C 38.343146 11 37 9.656854 37 8 C 37 6.3431458 38.343146 5 40 5 z M 50 5 C 51.656854 5 53 6.3431458 53 8 C 53 9.656854 51.656854 11 50 11 C 48.343146 11 47 9.656854 47 8 C 47 6.3431458 48.343146 5 50 5 z "
     id="path3982" />
  <g
     id="g3043"
     inkscape:export-filename="folder.png"
     inkscape:export-xdpi="90"
     inkscape:export-ydpi="90"
     transform="translate(70.143498,-4.1187801)" />
  <g
     id="scalable"
     transform="matrix(1.0385892,0,0,1.0385892,1285.4907,1874.611)"
     inkscape:label="#g3701"
     style="fill:#ffffff" />
  <g
     transform="translate(162.76849,-7.7437785)"
     inkscape:export-ydpi="90"
     inkscape:export-xdpi="90"
     inkscape:export-filename="folder.png"
     id="g3043-7" />
  <g
     style="fill:#ffffff"
     inkscape:label="#g3701"
     transform="matrix(1.0385892,0,0,1.0385892,1378.1157,1870.986)"
     id="scalable-6" />
  <path
     style="color:#000000;fill:#cb0000;fill-opacity:0.21819787;fill-rule:nonzero;stroke:none;stroke-width:2.28571415;marker:none;visibility:visible;display:inline;overflow:visible;enable-background:accumulate"
     d="M 9 2 L 9 5.1875 C 9.3164717 5.0739786 9.6444667 5 10 5 L 10 2 L 9 2 z M 9 10.8125 L 9 64 L 10 64 L 10 11 C 9.6444667 11 9.3164717 10.926021 9 10.8125 z "
     id="rect4291" />
  <path
     inkscape:connector-curvature="0"
     id="path4293"
     d="m 0,18 0,1 60,0 0,-1 -60,0 z m 0,6 0,1 60,0 0,-1 -60,0 z m 0,6 0,1 60,0 0,-1 -60,0 z m 0,6 0,1 56.46875,0 L 57.3125,36 0,36 z m 0,6 0,1 51.4375,0 0.84375,-1 L 0,42 z m 0,6 0,1 46.40625,0 L 47.25,48 0,48 z m 0,6 0,1 41.375,0 0.84375,-1 L 0,54 z"
     style="color:#000000;fill:#2d7dd3;fill-opacity:0.2342105;fill-rule:nonzero;stroke:none;stroke-width:2.28571415;marker:none;visibility:visible;display:inline;overflow:visible;enable-background:accumulate" />
  <path
     inkscape:connector-curvature="0"
     d="M 34,64 60,33 c -2.328567,2.776369 -4.36141,3 -11,3 H 37 v 15 c 0,6.644068 0.04437,9.370179 -3,13 z"
     id="path4278"
     style="fill:#e1d09b;fill-opacity:1;fill-rule:nonzero" />
</svg>

<svg xmlns="http://www.w3.org/2000/svg" viewBox="0 0 64 64"><path d="m4 0h60v62h-60z" fill="#e0d09c"/><g color="#000"><path fill="#cb0000" fill-opacity=".218" d="m13 0h1v62h-1z"/><path d="m4 16v1h60v-1h-60m0 6v1h60v-1h-60m0 6v1h60v-1h-60m0 6v1h60v-1h-60m0 6v1h60v-1h-60m0 6v1h60v-1h-60m0 6v1h60v-1h-60" fill="#2d7dd3" fill-opacity=".234"/></g><path d="m60 2v1h-56v27l31.678 32h28.322v-25-31z" fill="#7d5200" fill-opacity=".183"/><g color="#000"><path d="m0 2v62h34l26-31v-31h-60m10 3c1.657 0 3 1.343 3 3 0 1.657-1.343 3-3 3-1.657 0-3-1.343-3-3 0-1.657 1.343-3 3-3m10 0c1.657 0 3 1.343 3 3 0 1.657-1.343 3-3 3-1.657 0-3-1.343-3-3 0-1.657 1.343-3 3-3m10 0c1.657 0 3 1.343 3 3 0 1.657-1.343 3-3 3-1.657 0-3-1.343-3-3 0-1.657 1.343-3 3-3m10 0c1.657 0 3 1.343 3 3 0 1.657-1.343 3-3 3-1.657 0-3-1.343-3-3 0-1.657 1.343-3 3-3m10 0c1.657 0 3 1.343 3 3 0 1.657-1.343 3-3 3-1.657 0-3-1.343-3-3 0-1.657 1.343-3 3-3" fill="#ece3c2"/><path d="m9 2v3.188c.316-.114.644-.188 1-.188v-3h-1m0 8.813v53.19h1v-53c-.356 0-.684-.074-1-.188" fill="#cb0000" fill-opacity=".218"/><path d="m0 18v1h60v-1h-60m0 6v1h60v-1h-60m0 6v1h60v-1h-60m0 6v1h56.47l.844-1h-57.31m0 6v1h51.44l.844-1h-52.28m0 6v1h46.41l.844-1h-47.25m0 6v1h41.38l.844-1h-42.22" fill="#2d7dd3" fill-opacity=".234"/></g><path d="m34 64l26-31c-2.329 2.776-4.361 3-11 3h-12v15c0 6.644.044 9.37-3 13" fill="#e1d09b"/></svg>
